X: 1
T: Angus Campbell
T: The Laird o' Drumblair
C: J.S.Skinner
B: Harp & Claymore, p.93, p.94; SV p.13; Hunter #134, #224; Hebert p.8; BSFC IV-20.
N: Skinner also published this tune as the strathspey/shottish "Laird o' Drumblair".
R: reel
R: C
L: 1/8
K: A
E2 \
| "A"~A2cA EAce | {g}a2ga faec | "D"d2Bd "A"c2Ac | "Bm"BFBA "E7"GBEG |
| "A"~A2cA EAce | {g}a2ga faec | "D"defd "A"ceaf | "E7"ecdB "A"A2 |]
(3efg \
| "A"{g}a2ea caAa | cAeA aAca | "Bm"{^a}b2fb dbBb | dBfB "E7"bBdg |
| "A"{g}a2ea caAa | cAeA aecA |"D"defd "A"ceaf | "E7"ecdB "A"A2 |]

%%sep 1 1 500

